Yaru++/mimetypes/48/application-msword.svg

<svg height="48" viewBox="0 0 12.7 12.7" width="48" xmlns="http://www.w3.org/2000/svg" xmlns:xlink="http://www.w3.org/1999/xlink"><linearGradient id="a" gradientUnits="userSpaceOnUse" x1="6.350384" x2="6.350384" y1=".396869" y2="12.038536"><stop offset="0" stop-color="#fff"/><stop offset=".125" stop-color="#fff" stop-opacity=".098039"/><stop offset=".92500001" stop-color="#fff" stop-opacity=".098039"/><stop offset="1" stop-color="#fff" stop-opacity=".498039"/></linearGradient><linearGradient id="b" gradientTransform="matrix(0 -.03065352 .03080287 0 -3.30013 13.794409)" gradientUnits="userSpaceOnUse" x1="441.37933" x2="52.965569" y1="240.30261" y2="386.30783"><stop offset="0" stop-color="#2a6dcf"/><stop offset="1" stop-color="#3979d7"/></linearGradient><path d="m4.1624031.39686953c-.5881423-.008959-1.0513696.0135414-1.4324701.0775147-.3811032.063972-.692957.1839645-.921393.411861-.2284333.22789677-.3490012.53961007-.4123769.92087407-.0633756.3812644-.0757476.845434-.0728636 1.4350545v3.2401124 3.2416621c-.00286.5887147.00955 1.0526497.072864 1.4335037.063376.381265.1839436.692978.4123769.920875.228436.227896.5402898.34789.921393.411861.3811032.06397.844259.07752 1.4324701.07752h4.3759596c.5882111 0 1.0511261-.01352 1.4314382-.07752s.6912141-.184399.9188061-.412377c.227594-.227978.34745-.53947.411345-.920359.06389-.380886.07752-.844114.07752-1.4335037v-3.2416621-3.175l-2.8391097-2.84375407z" opacity=".1"/><path d="m4.1018796.26457843c-2.3994957 0-2.6576787.2452552-2.645918 2.63787837v3.3152466 3.3152469c-.011774 2.3926217.2464223 2.6378777 2.645918 2.6378777h4.4973796c2.3994958 0 2.6459188-.245227 2.6459188-2.6378777v-3.3152469l-.000183-3.247159-2.7192265-2.70596597z" fill="url(#b)"/><g fill="#fff"><g enable-background="new" stroke-width="1.333333" transform="matrix(.26458333 0 0 .26458333 -84.665767 -14.948964)"><path d="m344.63086 72-12.63281 1.873047v19.259765l12.54687 1.867188h1.45313s-.009-23.000012.00001-23.000012zm-2.0332 8.302734-1.77149 7.433594-1.45312-.113281c-.33354-1.660185-.72306-3.310794-1.02149-4.978516-.29343 1.620071-.67371 3.223951-1.00976 4.833985-.48151-.02507-.9652-.05528-1.44922-.08789-.4163-2.206904-.9062-4.397457-1.29492-6.609375.42885-.0201.86022-.03775 1.28906-.05273.25831 1.597499.55164 3.187103.77734 4.787109.35362-1.640127.7153-3.279795 1.06641-4.919922.47649-.02759.9532-.0472 1.42969-.07227.33354 1.692791.67402 3.381135 1.03515 5.066406.28338-1.74045.59695-3.474955.90039-5.212891.50157-.01758 1.0029-.04418 1.50196-.07422z"/><path d="m346.99805 75h9v17h-8.99805l-.002-2h7v-1h-7v-2h7v-1h-7v-2h7v-1h-7v-1.996094h7v-1.003906h-7v-2h7v-1h-7z"/></g><path d="m1.5878828 6.2177029v3.2416624c-.011456 2.3394527.2397892 2.5791707 2.5745203 2.5791707h4.3759596c2.3347313 0 2.5745203-.239691 2.5745203-2.5791707v-3.2416624z" opacity=".1"/><path d="m6.3503829.39686953v11.64166647h2.1879798c2.3347313 0 2.5745203-.239691 2.5745203-2.5791707v-3.2416624-3.175l-2.6458334-2.64583337z" opacity=".1"/></g><path d="m4.1624031.13228623c-.5882111 0-1.0513696.013541-1.4324701.077515-.3811032.063972-.692957.1839645-.921393.411861-.2284333.2278964-.3490012.53960977-.4123769.92087377-.0633756.3812643-.0757476.845434-.0728636 1.4350545v3.2401124 3.2416624c-.00286.5887147.00955 1.0526497.072864 1.4335037.063376.381265.1839436.692978.4123769.920874.228436.227897.5402898.34789.921393.411861.3811032.06397.844259.07752 1.4324701.07752h4.3759596c.5882111 0 1.0511261-.01352 1.4314382-.07752s.6912141-.184398.9188061-.412377c.227594-.227978.34745-.539469.411345-.920358.06389-.380886.07752-.844114.07752-1.4335037v-3.2416624-3.2845539l-2.8008695-2.80086277zm0 .2645833h4.3046465l2.6458334 2.64583337v3.175 3.2416624c0 2.3394797-.239789 2.5791707-2.5745203 2.5791707h-4.3759596c-2.3347311 0-2.5859767-.239718-2.5745203-2.5791707v-3.2416624-3.2416626c-.0114432-2.33945377.2397892-2.57917077 2.5745203-2.57917077z" opacity=".4"/><path d="m4.1624031.39686953c-2.3347311 0-2.5859635.239717-2.5745203 2.57917077v3.2416626 3.2416624c-.011456 2.3394527.2397892 2.5791707 2.5745203 2.5791707h4.3759596c2.3347313 0 2.5745203-.239691 2.5745203-2.5791707v-3.2416624-3.175h-.264583v3.175 3.2416624c0 .5803507-.01625 1.0241217-.07028 1.3461697-.05403.322051-.139877.509149-.264068.633556-.12419.124394-.310716.21051-.632002.264583-.3212889.05406-.7644342.07028-1.3435886.07028h-4.3759583c-.5791544 0-1.0228501-.01619-1.3451391-.07028-.3222863-.054105-.5103204-.140097-.6351032-.264583-.1247802-.124495-.2105978-.311367-.2640648-.633037-.0534696-.32167-.0684715-.765549-.0656299-1.3456547v-.00053-3.2421664-3.2421793-.0005292c-.002831-.5801064.0121709-1.0239838.0656299-1.3456544.0534697-.3216707.1392846-.5085499.2640648-.63303627.1247801-.1244865.3133355-.210484.6356218-.2645834.3222863-.0540744.7654661-.0702675 1.3446205-.0702675h4.3046465v-.2645833z" fill="url(#a)" opacity=".4"/><path d="m11.112883 3.3072862v-.2645833l-2.6458334-2.64583337h-.2645834v1.11364557.04267.022918c0 1.506003.2016019 1.7382252 1.7110604 1.7308441z" fill="#165d7c" opacity=".6"/><path d="m11.112883 3.0423642-2.6458334-2.64549517v.98132417.04267.022918c0 1.5060031.069406 1.6059637 1.5788644 1.5985826z" fill="#80a9e5"/></svg>

<?xml version="1.0" encoding="UTF-8" standalone="no"?>
<svg
   xmlns:dc="http://purl.org/dc/elements/1.1/"
   xmlns:cc="http://creativecommons.org/ns#"
   xmlns:rdf="http://www.w3.org/1999/02/22-rdf-syntax-ns#"
   xmlns:svg="http://www.w3.org/2000/svg"
   xmlns="http://www.w3.org/2000/svg"
   xmlns:xlink="http://www.w3.org/1999/xlink"
   xmlns:sodipodi="http://sodipodi.sourceforge.net/DTD/sodipodi-0.dtd"
   xmlns:inkscape="http://www.inkscape.org/namespaces/inkscape"
   height="48"
   viewBox="0 0 12.7 12.7"
   width="48"
   version="1.1"
   id="svg36"
   sodipodi:docname="application-msword.svg"
   inkscape:version="0.92.5 (2060ec1f9f, 2020-04-08)">
  <metadata
     id="metadata42">
    <rdf:RDF>
      <cc:Work
         rdf:about="">
        <dc:format>image/svg+xml</dc:format>
        <dc:type
           rdf:resource="http://purl.org/dc/dcmitype/StillImage" />
      </cc:Work>
    </rdf:RDF>
  </metadata>
  <defs
     id="defs40">
    <linearGradient
       gradientTransform="matrix(0.26458333,0,0,0.26458333,-84.666282,-16.007297)"
       inkscape:collect="always"
       xlink:href="#linearGradient927"
       id="linearGradient1004"
       x1="344"
       y1="62"
       x2="344"
       y2="106"
       gradientUnits="userSpaceOnUse" />
    <linearGradient
       inkscape:collect="always"
       id="linearGradient927">
      <stop
         style="stop-color:#ffffff;stop-opacity:1;"
         offset="0"
         id="stop923" />
      <stop
         id="stop933"
         offset="0.125"
         style="stop-color:#ffffff;stop-opacity:0.09803922" />
      <stop
         id="stop931"
         offset="0.92500001"
         style="stop-color:#ffffff;stop-opacity:0.09803922" />
      <stop
         style="stop-color:#ffffff;stop-opacity:0.49803922"
         offset="1"
         id="stop925" />
    </linearGradient>
    <linearGradient
       inkscape:collect="always"
       xlink:href="#linearGradient4338-3"
       id="linearGradient1024"
       gradientUnits="userSpaceOnUse"
       gradientTransform="matrix(0,-0.03065352,0.03080287,0,-3.3001301,13.794409)"
       x1="441.37933"
       y1="240.30261"
       x2="52.965569"
       y2="386.30783" />
    <linearGradient
       inkscape:collect="always"
       id="linearGradient4338-3">
      <stop
         style="stop-color:#2a6dcf;stop-opacity:1"
         offset="0"
         id="stop4340-0" />
      <stop
         style="stop-color:#3979d7;stop-opacity:1"
         offset="1"
         id="stop4342-7" />
    </linearGradient>
  </defs>
  <sodipodi:namedview
     pagecolor="#ffffff"
     bordercolor="#666666"
     borderopacity="1"
     objecttolerance="10"
     gridtolerance="10"
     guidetolerance="10"
     inkscape:pageopacity="0"
     inkscape:pageshadow="2"
     inkscape:window-width="834"
     inkscape:window-height="480"
     id="namedview38"
     showgrid="false"
     inkscape:zoom="4.9166667"
     inkscape:cx="24"
     inkscape:cy="24"
     inkscape:window-x="0"
     inkscape:window-y="28"
     inkscape:window-maximized="0"
     inkscape:current-layer="svg36" />
  <linearGradient
     id="a"
     gradientUnits="userSpaceOnUse"
     x1="6.35075952"
     x2="6.35075952"
     y1="284.43232313"
     y2="296.60315631">
    <stop
       offset="0"
       stop-color="#fff"
       id="stop2" />
    <stop
       offset=".125"
       stop-color="#fff"
       stop-opacity=".098039"
       id="stop4" />
    <stop
       offset=".92500001"
       stop-color="#fff"
       stop-opacity=".098039"
       id="stop6" />
    <stop
       offset="1"
       stop-opacity=".498039"
       id="stop8" />
  </linearGradient>
  <linearGradient
     id="b"
     gradientTransform="matrix(0 -.02997233 -.02997147 0 15.740062 297.92607)"
     gradientUnits="userSpaceOnUse"
     x1="512"
     x2="-.000001"
     y1="397.99393"
     y2="125.99394">
    <stop
       offset="0"
       stop-color="#2a6dcf"
       id="stop11" />
    <stop
       offset="1"
       stop-color="#3979d7"
       id="stop13" />
  </linearGradient>
  <path
     style="color:#000000;font-style:normal;font-variant:normal;font-weight:normal;font-stretch:normal;font-size:medium;line-height:normal;font-family:sans-serif;font-variant-ligatures:normal;font-variant-position:normal;font-variant-caps:normal;font-variant-numeric:normal;font-variant-alternates:normal;font-feature-settings:normal;text-indent:0;text-align:start;text-decoration:none;text-decoration-line:none;text-decoration-style:solid;text-decoration-color:#000000;letter-spacing:normal;word-spacing:normal;text-transform:none;writing-mode:lr-tb;direction:ltr;text-orientation:mixed;dominant-baseline:auto;baseline-shift:baseline;text-anchor:start;white-space:normal;shape-padding:0;clip-rule:nonzero;display:inline;overflow:visible;visibility:visible;opacity:0.1;isolation:auto;mix-blend-mode:normal;color-interpolation:sRGB;color-interpolation-filters:linearRGB;solid-color:#000000;solid-opacity:1;vector-effect:none;fill:#000000;fill-opacity:1;fill-rule:nonzero;stroke:none;stroke-width:0.52916664;stroke-linecap:butt;stroke-linejoin:miter;stroke-miterlimit:4;stroke-dasharray:none;stroke-dashoffset:0;stroke-opacity:1;marker:none;color-rendering:auto;image-rendering:auto;shape-rendering:auto;text-rendering:auto;enable-background:accumulate"
     d="M 4.1624031,0.39686953 C 3.5742608,0.38791053 3.1110335,0.41041093 2.729933,0.47438423 2.3488298,0.53835623 2.036976,0.65834873 1.80854,0.88624523 1.5801067,1.114142 1.4595388,1.4258553 1.3961631,1.8071193 1.3327875,2.1883837 1.3204155,2.6525533 1.3232995,3.2421738 v 3.2401124 3.2416621 c -0.00286,0.5887147 0.00955,1.0526497 0.072864,1.4335037 0.063376,0.381265 0.1839436,0.692978 0.4123769,0.920875 0.228436,0.227896 0.5402898,0.34789 0.921393,0.411861 0.3811032,0.06397 0.844259,0.07752 1.4324701,0.07752 h 4.3759596 c 0.5882111,0 1.0511261,-0.01352 1.4314382,-0.07752 0.3803121,-0.064 0.6912141,-0.184399 0.9188061,-0.412377 0.227594,-0.227978 0.34745,-0.53947 0.411345,-0.920359 0.06389,-0.380886 0.07752,-0.844114 0.07752,-1.4335037 v -3.2416621 -3.175 L 8.5383627,0.46353213 Z"
     id="path1020"
     inkscape:connector-curvature="0"
     sodipodi:nodetypes="sccsccccccsscccscccs" />
  <path
     style="color:#000000;display:inline;overflow:visible;visibility:visible;fill:url(#linearGradient1024);fill-opacity:1;fill-rule:nonzero;stroke:none;stroke-width:0.26458332;marker:none;enable-background:accumulate"
     d="m 4.1018796,0.26457843 c -2.3994957,0 -2.6576787,0.2452552 -2.645918,2.63787837 v 3.3152466 3.3152469 c -0.011774,2.3926217 0.2464223,2.6378777 2.645918,2.6378777 h 4.4973796 c 2.3994958,0 2.6459188,-0.245227 2.6459188,-2.6378777 V 6.2177034 L 11.244995,2.9705444 8.5257685,0.26457843 Z"
     id="path964"
     inkscape:connector-curvature="0"
     sodipodi:nodetypes="scccssscccs" />
  <g
     transform="matrix(0.26458333,0,0,0.26458333,-84.665767,-14.948964)"
     style="display:inline;enable-background:new"
     id="g1339">
    <path
       sodipodi:nodetypes="ccccccccccccccccccccc"
       inkscape:connector-curvature="0"
       id="path1309"
       d="m 344.63086,72 -12.63281,1.873047 V 93.132812 L 344.54492,95 h 1.45313 c 0,0 -0.009,-23.000012 1e-5,-23.000012 z m -2.0332,8.302734 -1.77149,7.433594 -1.45312,-0.113281 c -0.33354,-1.660185 -0.72306,-3.310794 -1.02149,-4.978516 -0.29343,1.620071 -0.67371,3.223951 -1.00976,4.833985 -0.48151,-0.02507 -0.9652,-0.05528 -1.44922,-0.08789 -0.4163,-2.206904 -0.9062,-4.397457 -1.29492,-6.609375 0.42885,-0.0201 0.86022,-0.03775 1.28906,-0.05273 0.25831,1.597499 0.55164,3.187103 0.77734,4.787109 0.35362,-1.640127 0.7153,-3.279795 1.06641,-4.919922 0.47649,-0.02759 0.9532,-0.0472 1.42969,-0.07227 0.33354,1.692791 0.67402,3.381135 1.03515,5.066406 0.28338,-1.74045 0.59695,-3.474955 0.90039,-5.212891 0.50157,-0.01758 1.0029,-0.04418 1.50196,-0.07422 z"
       style="fill:#ffffff;stroke-width:1.33333325;enable-background:new" />
    <path
       style="fill:#ffffff;stroke-width:1.33333325;enable-background:new"
       d="m 346.99805,75 h 9 V 92 H 347 l -0.002,-2 h 7 v -1 h -7 v -2 h 7 v -1 h -7 v -2 h 7 v -1 h -7 v -1.996094 h 7 V 80 h -7 v -2 h 7 v -1 h -7 z"
       id="path1314"
       inkscape:connector-curvature="0"
       sodipodi:nodetypes="ccccccccccccccccccccccccc" />
  </g>
  <path
     style="color:#000000;display:inline;overflow:visible;visibility:visible;opacity:0.1;fill:#ffffff;fill-opacity:1;fill-rule:nonzero;stroke:none;stroke-width:0.26458332;marker:none;enable-background:accumulate"
     d="M 1.5878828,6.2177029 V 9.4593653 C 1.5764268,11.798818 1.827672,12.038536 4.1624031,12.038536 h 4.3759596 c 2.3347313,0 2.5745203,-0.239691 2.5745203,-2.5791707 V 6.2177029 Z"
     id="path1006"
     inkscape:connector-curvature="0" />
  <path
     style="color:#000000;display:inline;overflow:visible;visibility:visible;opacity:0.1;fill:#ffffff;fill-opacity:1;fill-rule:nonzero;stroke:none;stroke-width:0.26458332;marker:none;enable-background:accumulate"
     d="M 6.3503829,0.39686953 V 12.038536 h 2.1879798 c 2.3347313,0 2.5745203,-0.239691 2.5745203,-2.5791707 v -3.2416624 -3.175 L 8.4670496,0.39686953 Z"
     id="path1013"
     inkscape:connector-curvature="0"
     sodipodi:nodetypes="ccsscccc" />
  <path
     style="color:#000000;font-style:normal;font-variant:normal;font-weight:normal;font-stretch:normal;font-size:medium;line-height:normal;font-family:sans-serif;font-variant-ligatures:normal;font-variant-position:normal;font-variant-caps:normal;font-variant-numeric:normal;font-variant-alternates:normal;font-feature-settings:normal;text-indent:0;text-align:start;text-decoration:none;text-decoration-line:none;text-decoration-style:solid;text-decoration-color:#000000;letter-spacing:normal;word-spacing:normal;text-transform:none;writing-mode:lr-tb;direction:ltr;text-orientation:mixed;dominant-baseline:auto;baseline-shift:baseline;text-anchor:start;white-space:normal;shape-padding:0;clip-rule:nonzero;display:inline;overflow:visible;visibility:visible;opacity:0.4;isolation:auto;mix-blend-mode:normal;color-interpolation:sRGB;color-interpolation-filters:linearRGB;solid-color:#000000;solid-opacity:1;vector-effect:none;fill:#000000;fill-opacity:1;fill-rule:nonzero;stroke:none;stroke-width:0.52916664;stroke-linecap:butt;stroke-linejoin:miter;stroke-miterlimit:4;stroke-dasharray:none;stroke-dashoffset:0;stroke-opacity:1;marker:none;color-rendering:auto;image-rendering:auto;shape-rendering:auto;text-rendering:auto;enable-background:accumulate"
     d="m 4.1624031,0.13228623 c -0.5882111,0 -1.0513696,0.013541 -1.4324701,0.077515 -0.3811032,0.063972 -0.692957,0.1839645 -0.921393,0.411861 C 1.5801067,0.84955863 1.4595388,1.161272 1.3961631,1.542536 1.3327875,1.9238003 1.3204155,2.38797 1.3232995,2.9775905 v 3.2401124 3.2416624 c -0.00286,0.5887147 0.00955,1.0526497 0.072864,1.4335037 0.063376,0.381265 0.1839436,0.692978 0.4123769,0.920874 0.228436,0.227897 0.5402898,0.34789 0.921393,0.411861 0.3811032,0.06397 0.844259,0.07752 1.4324701,0.07752 h 4.3759596 c 0.5882111,0 1.0511261,-0.01352 1.4314382,-0.07752 0.3803121,-0.064 0.6912141,-0.184398 0.9188061,-0.412377 0.227594,-0.227978 0.34745,-0.539469 0.411345,-0.920358 0.06389,-0.380886 0.07752,-0.844114 0.07752,-1.4335037 V 6.2177029 2.933149 L 8.5766029,0.13228623 Z m 0,0.2645833 H 8.4670496 L 11.112883,3.0427029 v 3.175 3.2416624 c 0,2.3394797 -0.239789,2.5791707 -2.5745203,2.5791707 H 4.1624031 c -2.3347311,0 -2.5859767,-0.239718 -2.5745203,-2.5791707 V 6.2177029 2.9760403 C 1.5764396,0.63658653 1.827672,0.39686953 4.1624031,0.39686953 Z"
     id="path958"
     inkscape:connector-curvature="0"
     sodipodi:nodetypes="sccsccccccsscccscccsscccssscccs" />
  <path
     style="color:#000000;font-style:normal;font-variant:normal;font-weight:normal;font-stretch:normal;font-size:medium;line-height:normal;font-family:sans-serif;font-variant-ligatures:normal;font-variant-position:normal;font-variant-caps:normal;font-variant-numeric:normal;font-variant-alternates:normal;font-feature-settings:normal;text-indent:0;text-align:start;text-decoration:none;text-decoration-line:none;text-decoration-style:solid;text-decoration-color:#000000;letter-spacing:normal;word-spacing:normal;text-transform:none;writing-mode:lr-tb;direction:ltr;text-orientation:mixed;dominant-baseline:auto;baseline-shift:baseline;text-anchor:start;white-space:normal;shape-padding:0;clip-rule:nonzero;display:inline;overflow:visible;visibility:visible;opacity:0.4;isolation:auto;mix-blend-mode:normal;color-interpolation:sRGB;color-interpolation-filters:linearRGB;solid-color:#000000;solid-opacity:1;vector-effect:none;fill:url(#linearGradient1004);fill-opacity:1;fill-rule:nonzero;stroke:none;stroke-width:0.52916664;stroke-linecap:butt;stroke-linejoin:miter;stroke-miterlimit:4;stroke-dasharray:none;stroke-dashoffset:0;stroke-opacity:1;marker:none;color-rendering:auto;image-rendering:auto;shape-rendering:auto;text-rendering:auto;enable-background:accumulate"
     clip-path="none"
     d="m 4.1624031,0.39686953 c -2.3347311,0 -2.5859635,0.239717 -2.5745203,2.57917077 V 6.2177029 9.4593653 C 1.5764268,11.798818 1.827672,12.038536 4.1624031,12.038536 h 4.3759596 c 2.3347313,0 2.5745203,-0.239691 2.5745203,-2.5791707 v -3.2416624 -3.175 H 10.8483 v 3.175 3.2416624 c 0,0.5803507 -0.01625,1.0241217 -0.07028,1.3461697 -0.05403,0.322051 -0.139877,0.509149 -0.264068,0.633556 -0.12419,0.124394 -0.310716,0.21051 -0.632002,0.264583 -0.3212889,0.05406 -0.7644342,0.07028 -1.3435886,0.07028 H 4.1624031 c -0.5791544,0 -1.0228501,-0.01619 -1.3451391,-0.07028 C 2.4949777,11.649569 2.3069436,11.563577 2.1821608,11.439091 2.0573806,11.314596 1.971563,11.127724 1.918096,10.806054 1.8646264,10.484384 1.8496245,10.040505 1.8524661,9.4603993 V 9.4598693 6.2177029 2.9755236 2.9749944 C 1.8496351,2.394888 1.864637,1.9510106 1.918096,1.62934 1.9715657,1.3076693 2.0573806,1.1207901 2.1821608,0.99630373 2.3069409,0.87181723 2.4954963,0.78581973 2.8177826,0.73172033 3.1400689,0.67764593 3.5832487,0.66145283 4.1624031,0.66145283 h 4.3046465 v -0.2645833 z"
     id="path990"
     inkscape:connector-curvature="0" />
  <path
     inkscape:connector-curvature="0"
     style="color:#000000;display:inline;overflow:visible;visibility:visible;opacity:0.6;fill:#165d7c;fill-opacity:1;fill-rule:nonzero;stroke:none;stroke-width:0.06615189;marker:none;enable-background:accumulate"
     d="M 11.112883,3.3072862 V 3.0427029 L 8.4670496,0.39686953 H 8.2024662 v 1.11364557 0.04267 0.022918 c 0,1.506003 0.2016019,1.7382252 1.7110604,1.7308441 z"
     id="rect4158-0-3-62-2"
     sodipodi:nodetypes="ccccccscc" />
  <path
     inkscape:connector-curvature="0"
     style="color:#000000;display:inline;overflow:visible;visibility:visible;fill:#80a9e5;fill-opacity:1;fill-rule:nonzero;stroke:none;stroke-width:0.06615189;marker:none;enable-background:accumulate"
     d="M 11.112883,3.0423642 8.4670496,0.39686903 v 0.98132417 0.04267 0.022918 c 0,1.5060031 0.069406,1.6059637 1.5788644,1.5985826 z"
     id="rect4158-0-3-62"
     sodipodi:nodetypes="ccccscc" />
</svg>
